lib/assets/like/achived.svg

<svg width="48" height="48" viewBox="0 0 48 48" fill="none" xmlns="http://www.w3.org/2000/svg">
<path fill-rule="evenodd" clip-rule="evenodd" d="M33.226 6C34.9685 6 36.6596 6.37113 38.2428 7.10477C44.1154 9.81491 46.647 16.6938 43.8764 22.4507C41.4811 27.4395 27.0064 40.0753 25.3616 41.4994C25.0069 41.8101 24.46 42.4741 24 42.5C24 42.5 24 42.5 22.6373 41.4908C20.9925 40.0753 6.52034 27.4308 4.12246 22.4421C1.35449 16.6938 3.88344 9.81491 9.75607 7.10477C11.3418 6.37113 13.0304 6 14.7729 6C18.3915 6 21.7892 7.64852 23.9994 10.3587C26.202 7.64852 29.5996 6 33.226 6ZM23.9994 37.322C30.1753 31.8758 38.7286 23.7454 40.1704 20.7504C41.9746 16.9873 40.3297 12.4905 36.4823 10.7298C35.4466 10.2551 34.3491 10.0134 33.2183 10.0134C30.2524 10.0134 26.2637 14.3289 26.2637 14.3289L23.9917 16.7111L21.7172 14.3289C21.7172 14.3289 17.7285 10.0134 14.7652 10.0134C13.6317 10.0134 12.5343 10.2551 11.4986 10.7298C7.66917 12.4992 6.02432 16.9959 7.82851 20.7504C9.27033 23.7454 17.8235 31.8758 23.9994 37.322Z" fill="#EBEBEB"/>
<path d="M23.9994 37.322C30.1753 31.8758 38.7286 23.7454 40.1704 20.7504C41.9746 16.9873 40.3297 12.4905 36.4823 10.7298C35.4466 10.2551 34.3491 10.0134 33.2183 10.0134C30.2524 10.0134 26.2637 14.3289 26.2637 14.3289L23.9917 16.7111L21.7172 14.3289C21.7172 14.3289 17.7285 10.0134 14.7652 10.0134C13.6317 10.0134 12.5343 10.2551 11.4986 10.7298C7.66917 12.4992 6.02432 16.9959 7.82851 20.7504C9.27033 23.7454 17.8235 31.8758 23.9994 37.322Z" fill="#2067F5"/>
</svg>

<svg width="48" height="48" viewBox="0 0 48 48" fill="none" xmlns="http://www.w3.org/2000/svg"><path fill-rule="evenodd" clip-rule="evenodd" d="M33.226 6c1.742 0 3.434.371 5.017 1.105 5.872 2.71 8.404 9.589 5.633 15.346-2.395 4.988-16.87 17.624-18.514 19.048-.355.311-.902.975-1.362 1.001l-1.363-1.01C20.992 40.076 6.52 27.43 4.122 22.443 1.354 16.694 3.883 9.815 9.756 7.105A11.866 11.866 0 0 1 14.773 6c3.619 0 7.016 1.649 9.226 4.359C26.202 7.649 29.6 6 33.226 6Zm-9.227 31.322c6.176-5.446 14.73-13.577 16.171-16.572 1.805-3.763.16-8.26-3.688-10.02a7.78 7.78 0 0 0-3.264-.717c-2.966 0-6.954 4.316-6.954 4.316l-2.272 2.382-2.275-2.382s-3.988-4.316-6.952-4.316c-1.133 0-2.23.242-3.266.717-3.83 1.77-5.475 6.266-3.67 10.02 1.441 2.995 9.994 11.126 16.17 16.572Z" fill="#EBEBEB"/><path d="M24 37.322c6.175-5.446 14.729-13.577 16.17-16.572 1.805-3.763.16-8.26-3.688-10.02a7.78 7.78 0 0 0-3.264-.717c-2.966 0-6.954 4.316-6.954 4.316l-2.272 2.382-2.275-2.382s-3.988-4.316-6.952-4.316c-1.133 0-2.23.242-3.266.717-3.83 1.77-5.475 6.266-3.67 10.02 1.441 2.995 9.994 11.126 16.17 16.572Z" fill="#2067F5"/></svg>
